lib/svgs/add-user.svg

<svg xmlns="http://www.w3.org/2000/svg" viewBox="0 0 20 20">
    <path fill="#000" fill-rule="evenodd" d="M2.60050073,18.001 C2.56050073,18.001 2.51950073,17.996 2.47950073,17.988 C2.15450073,17.922 1.94550073,17.605 2.01250073,17.279 L2.61750073,14.333 C2.62850073,14.282 2.64550073,14.233 2.66850073,14.187 C2.92250073,13.677 3.35850073,13.29 3.89550073,13.098 L7.51650073,11.807 C7.62050073,11.77 7.69050073,11.67 7.69050073,11.56 L7.69050073,11.032 C7.69050073,10.714 7.54950073,10.415 7.30350073,10.212 C6.42550073,9.489 5.92150073,8.43 5.92150073,7.307 L5.92150073,5.789 C5.92150073,3.7 7.62150073,2 9.71150073,2 C11.8005007,2 13.5005007,3.7 13.5005007,5.789 L13.5005007,7.307 C13.5005007,8.425 12.9995007,9.481 12.1275007,10.206 C11.8775007,10.413 11.7335007,10.718 11.7335007,11.043 L11.7335007,11.561 C11.7335007,11.671 11.8035007,11.771 11.9075007,11.808 C12.2195007,11.919 12.3825007,12.262 12.2705007,12.574 C12.1595007,12.886 11.8145007,13.051 11.5045007,12.938 C10.9235007,12.73 10.5335007,12.177 10.5335007,11.561 L10.5335007,11.043 C10.5335007,10.36 10.8355007,9.718 11.3615007,9.282 C11.9575007,8.787 12.3005007,8.067 12.3005007,7.307 L12.3005007,5.789 C12.3005007,4.361 11.1395007,3.2 9.71150073,3.2 C8.28350073,3.2 7.12150073,4.361 7.12150073,5.789 L7.12150073,7.307 C7.12150073,8.07 7.46650073,8.792 8.06650073,9.287 C8.59050073,9.718 8.89050073,10.354 8.89050073,11.032 L8.89050073,11.56 C8.89050073,12.176 8.50050073,12.73 7.91950073,12.937 L4.29850073,14.229 C4.07750073,14.308 3.89350073,14.46 3.77550073,14.661 L3.18750073,17.522 C3.12950073,17.805 2.87950073,18.001 2.60050073,18.001 L2.60050073,18.001 Z M17.1956007,14.501 L15.4956007,14.501 L15.4956007,12.801 C15.4956007,12.469 15.2276007,12.201 14.8956007,12.201 C14.5646007,12.201 14.2956007,12.469 14.2956007,12.801 L14.2956007,14.501 L12.5956007,14.501 C12.2636007,14.501 11.9956007,14.77 11.9956007,15.101 C11.9956007,15.432 12.2636007,15.7 12.5956007,15.7 L14.2956007,15.7 L14.2956007,17.4 C14.2956007,17.731 14.5646007,18 14.8956007,18 C15.2276007,18 15.4956007,17.731 15.4956007,17.4 L15.4956007,15.7 L17.1956007,15.7 C17.5276007,15.7 17.7956007,15.432 17.7956007,15.101 C17.7956007,14.77 17.5276007,14.501 17.1956007,14.501 L17.1956007,14.501 Z"/>
</svg>

<svg xmlns="http://www.w3.org/2000/svg" viewBox="0 0 20 20">
    <path fill="#000" fill-rule="evenodd" d="M2.6 18.001a.599.599 0 0 1-.588-.722l.606-2.946a.617.617 0 0 1 .05-.146c.255-.51.69-.897 1.228-1.089l3.62-1.291a.263.263 0 0 0 .175-.247v-.528a1.06 1.06 0 0 0-.387-.82 3.757 3.757 0 0 1-1.382-2.905V5.789a3.794 3.794 0 0 1 7.579 0v1.518a3.766 3.766 0 0 1-1.373 2.899c-.25.207-.394.512-.394.837v.518c0 .11.07.21.174.247a.599.599 0 1 1-.403 1.13 1.466 1.466 0 0 1-.971-1.377v-.518c0-.683.302-1.325.828-1.761a2.567 2.567 0 0 0 .939-1.975V5.789a2.591 2.591 0 0 0-5.18 0v1.518c0 .763.346 1.485.946 1.98.524.431.824 1.067.824 1.745v.528c0 .616-.39 1.17-.971 1.377l-3.621 1.292a.99.99 0 0 0-.523.432l-.588 2.861a.6.6 0 0 1-.587.479m14.595-3.5h-1.7v-1.7a.6.6 0 1 0-1.2 0v1.7h-1.7a.6.6 0 1 0 0 1.199h1.7v1.7a.6.6 0 0 0 1.2 0v-1.7h1.7a.599.599 0 1 0 0-1.199"/>
</svg>
